dist/images/close.svg

<svg xmlns="http://www.w3.org/2000/svg" width="12" height="12" viewBox="0 0 12 12"><path fill="#444" d="M12 9.7c0 .1 0 .1-.1.2l-2 2c-.1.1-.1.1-.2.1s-.1 0-.2-.1l-3.5-3.5-3.5 3.5c-.1.1-.1.1-.2.1s-.1 0-.2-.1l-2-2c-.1-.1-.1-.1-.1-.2s0-.1.1-.2l3.5-3.5-3.5-3.5c-.1-.1-.1-.1-.1-.2s0-.1.1-.2l2-2c.1-.1.1-.1.2-.1s.1 0 .2.1l3.5 3.5 3.5-3.5c.1-.1.1-.1.2-.1s.1 0 .2.1l2 2c.1.1.1.1.1.2s0 .1-.1.2l-3.5 3.5 3.5 3.5c.1.1.1.1.1.2z"/></svg>

<?xml version="1.0" encoding="utf-8"?>
<!-- Generator: Adobe Illustrator 17.0.0, SVG Export Plug-In . SVG Version: 6.00 Build 0)  -->
<!DOCTYPE svg PUBLIC "-//W3C//DTD SVG 1.1//EN" "http://www.w3.org/Graphics/SVG/1.1/DTD/svg11.dtd">
<svg version="1.1" id="checkbox" xmlns="http://www.w3.org/2000/svg" xmlns:xlink="http://www.w3.org/1999/xlink" x="0px" y="0px"
	 width="12px" height="12px" viewBox="0 0 12 12" enable-background="new 0 0 12 12" xml:space="preserve">
<g>
	<path fill="#444444" d="M12,9.7c0,0.1,0,0.1-0.1,0.2l-2,2C9.8,12,9.8,12,9.7,12s-0.1,0-0.2-0.1L6,8.4l-3.5,3.5
		C2.4,12,2.4,12,2.3,12c-0.1,0-0.1,0-0.2-0.1l-2-2C0,9.8,0,9.8,0,9.7c0-0.1,0-0.1,0.1-0.2L3.6,6L0.1,2.5C0,2.4,0,2.4,0,2.3
		c0-0.1,0-0.1,0.1-0.2l2-2C2.2,0,2.2,0,2.3,0c0.1,0,0.1,0,0.2,0.1L6,3.6l3.5-3.5C9.6,0,9.6,0,9.7,0s0.1,0,0.2,0.1l2,2
		C12,2.2,12,2.2,12,2.3c0,0.1,0,0.1-0.1,0.2L8.4,6l3.5,3.5C12,9.6,12,9.6,12,9.7z"/>
</g>
</svg>
